;FLAVOR:Marlin
;TIME:2844
;Filament used: 1.6721m
;Layer height: 0.2
;MINX:72.5
;MINY:79.942
;MINZ:0.2
;MAXX:162.5
;MAXY:155.057
;MAXZ:5.8
;TARGET_MACHINE.NAME:Creality Ender-3
;  [Display Filename and Layer on LCD]  Did not run.  It is now included in 'Display Info on LCD'.
;POSTPROCESSED
;  [DisplayFilenameAndLayerOnLCD]
;Generated with Cura_SteamEngine 5.9.0
M140 S55
M105
M190 S55
M104 S200
M105
M109 S200
M82 ;absolute extrusion mode
; Ender 3 Custom Start G-code
G92 E0 ; Reset Extruder
G28 ; Home all axes
G1 Z2.0 F3000 ; Move Z Axis up little to prevent scratching of Heat Bed
G1 X0.1 Y20 Z0.3 F5000.0 ; Move to start position
G1 X0.1 Y200.0 Z0.3 F1500.0 E15 ; Draw the first line
G1 X0.4 Y200.0 Z0.3 F5000.0 ; Move to side a little
G1 X0.4 Y20 Z0.3 F1500.0 E30 ; Draw the second line
G92 E0 ; Reset Extruder
G1 Z2.0 F3000 ; Move Z Axis up little to prevent scratching of Heat Bed
G1 X5 Y20 Z0.3 F5000.0 ; Move over to prevent blob squish
G92 E0
G92 E0
G1 F2700 E-5
;LAYER_COUNT:29
;LAYER:0
M107
G0 F6300 X84.064 Y155.056 Z0.2
;TYPE:SKIRT
G1 F2700 E0
G1 F1260 X83.331 Y155.045 E0.02438
G1 X82.359 Y154.988 E0.05677
G1 X81.396 Y154.842 E0.08916
G1 X80.45 Y154.613 E0.12154
G1 X79.526 Y154.301 E0.15397
G1 X78.636 Y153.909 E0.18632
G1 X77.813 Y153.458 E0.21753
G1 X76.974 Y152.897 E0.2511
G1 X76.27 Y152.331 E0.28114
G1 X75.517 Y151.606 E0.31591
G1 X74.88 Y150.87 E0.34829
G1 X74.35 Y150.139 E0.37832
G1 X73.814 Y149.242 E0.41307
G1 X73.392 Y148.364 E0.44547
G1 X73.05 Y147.452 E0.47787
G1 X72.79 Y146.514 E0.51024
G1 X72.612 Y145.545 E0.54301
G1 X72.514 Y144.366 E0.58236
G1 X72.5 Y143.715 E0.60402
G1 X72.501 Y131.575 E1.0078
G1 X72.513 Y130.837 E1.03234
G1 X72.572 Y129.865 E1.06473
G1 X72.718 Y128.902 E1.09713
G1 X72.949 Y127.955 E1.12955
G1 X73.237 Y127.099 E1.15959
G1 X73.655 Y126.143 E1.19429
G1 X74.107 Y125.321 E1.22549
G1 X74.663 Y124.491 E1.25872
G1 X75.047 Y124.002 E1.2794
G1 X75.459 Y123.508 E1.30079
G1 X77.056 Y121.529 E1.38537
G1 X78.594 Y119.506 E1.4699
G1 X80.05 Y117.475 E1.55301
G1 X81.474 Y115.366 E1.63765
G1 X82.815 Y113.253 E1.72089
G1 X84.104 Y111.091 E1.80461
G1 X85.323 Y108.908 E1.88777
G1 X86.508 Y106.636 E1.97299
G1 X87.605 Y104.38 E2.05643
G1 X88.624 Y102.124 E2.13876
G1 X89.628 Y99.72 E2.22541
G1 X90.508 Y97.435 E2.30686
G1 X91.351 Y95.046 E2.39112
G1 X92.124 Y92.64 E2.47517
G1 X92.832 Y90.204 E2.55954
G1 X93.382 Y88.116 E2.63136
G1 X93.674 Y87.186 E2.66378
G1 X94.048 Y86.287 E2.69616
G1 X94.5 Y85.424 E2.72857
G1 X95.026 Y84.605 E2.76094
G1 X95.623 Y83.835 E2.79335
G1 X96.285 Y83.122 E2.82571
G1 X97.008 Y82.468 E2.85813
G1 X97.785 Y81.882 E2.8905
G1 X98.549 Y81.402 E2.92051
G1 X99.481 Y80.928 E2.95529
G1 X100.386 Y80.566 E2.98771
G1 X101.318 Y80.286 E3.02007
G1 X102.202 Y80.101 E3.05011
G1 X103.675 Y79.957 E3.09934
G1 X104.314 Y79.942 E3.1206
G1 X131.186 Y79.942 E4.01437
G1 X132.067 Y79.955 E4.04367
G1 X133.038 Y80.014 E4.07603
G1 X134.002 Y80.16 E4.10845
G1 X134.949 Y80.391 E4.14087
G1 X135.805 Y80.679 E4.17091
G1 X136.761 Y81.098 E4.20563
G1 X137.614 Y81.569 E4.23804
G1 X138.421 Y82.114 E4.27043
G1 X139.178 Y82.728 E4.30285
G1 X139.876 Y83.406 E4.33521
G1 X140.512 Y84.143 E4.36759
G1 X141.081 Y84.933 E4.39997
G1 X141.544 Y85.709 E4.43003
G1 X141.996 Y86.65 E4.46475
G1 X142.335 Y87.557 E4.49695
G1 X142.55 Y88.306 E4.52287
G1 X143.112 Y90.568 E4.60039
G1 X143.797 Y93.054 E4.68616
G1 X144.531 Y95.446 E4.76938
G1 X145.326 Y97.799 E4.85198
G1 X146.215 Y100.203 E4.93723
G1 X147.141 Y102.503 E5.0197
G1 X148.151 Y104.819 E5.10374
G1 X149.232 Y107.126 E5.18847
G1 X150.345 Y109.328 E5.27054
G1 X151.573 Y111.601 E5.35646
G1 X152.796 Y113.717 E5.43775
G1 X154.14 Y115.899 E5.52299
G1 X155.503 Y117.98 E5.60573
G1 X156.962 Y120.07 E5.6905
G1 X158.446 Y122.077 E5.77352
G1 X160.163 Y124.266 E5.86605
G1 X160.729 Y125.06 E5.89848
G1 X161.221 Y125.901 E5.93089
G1 X161.636 Y126.782 E5.96328
G1 X161.972 Y127.696 E5.99567
G1 X162.226 Y128.637 E6.02809
G1 X162.396 Y129.6 E6.06061
G1 X162.485 Y130.698 E6.09725
G1 X162.5 Y131.355 E6.11911
G1 X162.499 Y143.473 E6.52216
G1 X162.487 Y144.234 E6.54747
G1 X162.429 Y145.207 E6.57989
G1 X162.283 Y146.17 E6.61229
G1 X162.052 Y147.117 E6.64471
G1 X161.739 Y148.039 E6.67709
G1 X161.347 Y148.93 E6.70947
G1 X160.895 Y149.752 E6.74067
G1 X160.333 Y150.59 E6.77423
G1 X159.743 Y151.32 E6.80545
G1 X159.04 Y152.046 E6.83906
G1 X158.304 Y152.682 E6.87141
G1 X157.514 Y153.252 E6.90381
G1 X156.738 Y153.715 E6.93387
G1 X155.798 Y154.168 E6.96857
G1 X154.885 Y154.51 E7.001
G1 X153.947 Y154.769 E7.03337
G1 X152.981 Y154.946 E7.06603
G1 X151.845 Y155.042 E7.10395
G1 X151.17 Y155.057 E7.1264
G1 X84.064 Y155.056 E9.35836
G0 F6300 X84.07 Y154.656
G1 F1260 X83.354 Y154.646 E9.38218
G1 X82.418 Y154.592 E9.41336
G1 X81.489 Y154.453 E9.4446
G1 X80.577 Y154.234 E9.4758
G1 X79.687 Y153.935 E9.50702
G1 X78.828 Y153.558 E9.53822
G1 X78.005 Y153.107 E9.56944
G1 X77.225 Y152.585 E9.60066
G1 X76.521 Y152.019 E9.6307
G1 X75.819 Y151.344 E9.66309
G1 X75.204 Y150.635 E9.69431
G1 X74.674 Y149.904 E9.72434
G1 X74.174 Y149.068 E9.75674
G1 X73.766 Y148.223 E9.78795
G1 X73.435 Y147.345 E9.81916
G1 X73.183 Y146.441 E9.85037
G1 X73.011 Y145.512 E9.88179
G1 X72.913 Y144.333 E9.92114
G1 X72.9 Y143.715 E9.9417
G1 X72.901 Y131.581 E10.34528
G1 X72.912 Y130.861 E10.36923
G1 X72.968 Y129.924 E10.40045
G1 X73.107 Y128.996 E10.43166
G1 X73.328 Y128.083 E10.4629
G1 X73.616 Y127.227 E10.49294
G1 X74.006 Y126.336 E10.52529
G1 X74.458 Y125.514 E10.55649
G1 X74.978 Y124.738 E10.58756
G1 X75.354 Y124.258 E10.60784
G1 X75.766 Y123.764 E10.62924
G1 X77.367 Y121.78 E10.71403
G1 X78.919 Y119.739 E10.79931
G1 X80.382 Y117.699 E10.88281
G1 X81.806 Y115.59 E10.96744
G1 X83.159 Y113.458 E11.05143
G1 X84.448 Y111.296 E11.13515
G1 X85.678 Y109.093 E11.21907
G1 X86.863 Y106.821 E11.30429
G1 X87.965 Y104.555 E11.3881
G1 X88.988 Y102.289 E11.47079
G1 X89.997 Y99.874 E11.55785
G1 X90.881 Y97.579 E11.63964
G1 X91.728 Y95.179 E11.72429
G1 X92.505 Y92.762 E11.80874
G1 X93.216 Y90.316 E11.89346
G1 X93.764 Y88.235 E11.96503
G1 X94.044 Y87.339 E11.99625
G1 X94.403 Y86.472 E12.02746
G1 X94.837 Y85.64 E12.05868
G1 X95.343 Y84.849 E12.08991
G1 X95.916 Y84.107 E12.12109
G1 X96.554 Y83.418 E12.15232
G1 X97.249 Y82.787 E12.18354
G1 X97.998 Y82.221 E12.21477
G1 X98.762 Y81.741 E12.24478
G1 X99.63 Y81.299 E12.27717
G1 X100.502 Y80.949 E12.30842
G1 X101.4 Y80.678 E12.33962
G1 X102.284 Y80.493 E12.36966
G1 X103.684 Y80.357 E12.41645
G1 X104.323 Y80.342 E12.4377
G1 X131.18 Y80.342 E13.33097
G1 X132.043 Y80.354 E13.35968
G1 X132.979 Y80.41 E13.39087
G1 X133.908 Y80.549 E13.42211
G1 X134.821 Y80.77 E13.45335
G1 X135.677 Y81.058 E13.48339
G1 X136.568 Y81.448 E13.51574
G1 X137.391 Y81.901 E13.54699
G1 X138.17 Y82.425 E13.57821
G1 X138.9 Y83.015 E13.60943
G1 X139.574 Y83.668 E13.64064
G1 X140.188 Y84.377 E13.67184
G1 X140.737 Y85.138 E13.70305
G1 X141.2 Y85.914 E13.7331
G1 X141.622 Y86.791 E13.76547
G1 X141.951 Y87.667 E13.7966
G1 X142.162 Y88.402 E13.82203
G1 X142.726 Y90.674 E13.89989
G1 X143.412 Y93.16 E13.98566
G1 X144.152 Y95.574 E14.06964
G1 X144.951 Y97.938 E14.15264
G1 X145.844 Y100.352 E14.23825
G1 X146.774 Y102.663 E14.3211
G1 X147.784 Y104.979 E14.40514
G1 X148.875 Y107.306 E14.49062
G1 X149.993 Y109.518 E14.57305
G1 X151.221 Y111.791 E14.65898
G1 X152.455 Y113.927 E14.74103
G1 X153.805 Y116.118 E14.82662
G1 X155.175 Y118.209 E14.90977
G1 X156.64 Y120.308 E14.9949
G1 X158.131 Y122.324 E15.0783
G1 X159.838 Y124.499 E15.17026
G1 X160.384 Y125.263 E15.2015
G1 X160.859 Y126.072 E15.2327
G1 X161.261 Y126.921 E15.26394
G1 X161.586 Y127.801 E15.29514
G1 X161.832 Y128.707 E15.32637
G1 X161.997 Y129.633 E15.35765
G1 X162.085 Y130.707 E15.39349
G1 X162.1 Y131.355 E15.41505
G1 X162.099 Y143.467 E15.8179
G1 X162.088 Y144.211 E15.84265
G1 X162.033 Y145.148 E15.87386
G1 X161.894 Y146.076 E15.90507
G1 X161.673 Y146.989 E15.93632
G1 X161.373 Y147.878 E15.96752
G1 X160.996 Y148.737 E15.99872
G1 X160.544 Y149.559 E16.02993
G1 X160.021 Y150.339 E16.06116
G1 X159.455 Y151.042 E16.09118
G1 X158.778 Y151.744 E16.12362
G1 X158.07 Y152.358 E16.15479
G1 X157.309 Y152.908 E16.18602
G1 X156.533 Y153.371 E16.21607
G1 X155.657 Y153.794 E16.24842
G1 X154.778 Y154.125 E16.27966
G1 X153.874 Y154.376 E16.31087
G1 X152.947 Y154.547 E16.34222
G1 X151.811 Y154.643 E16.38014
G1 X151.17 Y154.657 E16.40146
G1 X84.07 Y154.656 E18.63322
G0 F6300 X84.075 Y154.256
G1 F1260 X83.377 Y154.247 E18.65644
G1 X82.476 Y154.196 E18.68645
G1 X81.582 Y154.064 E18.71651
G1 X80.704 Y153.855 E18.74653
G1 X79.847 Y153.568 E18.77659
G1 X79.02 Y153.207 E18.8066
G1 X78.227 Y152.774 E18.83665
G1 X77.476 Y152.273 E18.86668
G1 X76.772 Y151.707 E18.89672
G1 X76.121 Y151.081 E18.92676
G1 X75.528 Y150.4 E18.95679
G1 X74.998 Y149.669 E18.98683
G1 X74.534 Y148.894 E19.01687
G1 X74.14 Y148.081 E19.04692
G1 X73.82 Y147.237 E19.07694
G1 X73.576 Y146.367 E19.10699
G1 X73.41 Y145.479 E19.13704
G1 X73.313 Y144.324 E19.17559
G1 X73.3 Y143.715 E19.19585
G1 X73.301 Y131.587 E19.59923
G1 X73.311 Y130.884 E19.62261
G1 X73.364 Y129.982 E19.65266
G1 X73.496 Y129.089 E19.68269
G1 X73.707 Y128.211 E19.71272
G1 X73.995 Y127.355 E19.74276
G1 X74.357 Y126.528 E19.77279
G1 X74.791 Y125.736 E19.80283
G1 X75.293 Y124.985 E19.83287
G1 X75.662 Y124.514 E19.85277
G1 X76.073 Y124.019 E19.87417
G1 X77.678 Y122.031 E19.95915
G1 X79.244 Y119.972 E20.04519
G1 X80.707 Y117.932 E20.12868
G1 X82.144 Y115.804 E20.21409
G1 X83.503 Y113.663 E20.29843
G1 X84.792 Y111.501 E20.38215
G1 X86.033 Y109.278 E20.46683
G1 X87.218 Y107.006 E20.55206
G1 X88.325 Y104.73 E20.63624
G1 X89.353 Y102.454 E20.7193
G1 X90.366 Y100.028 E20.80674
G1 X91.254 Y97.723 E20.8889
G1 X92.105 Y95.312 E20.97394
G1 X92.886 Y92.884 E21.05877
G1 X93.6 Y90.428 E21.14384
G1 X94.146 Y88.354 E21.21517
G1 X94.414 Y87.491 E21.24522
G1 X94.758 Y86.656 E21.27526
G1 X95.174 Y85.855 E21.30528
G1 X95.66 Y85.093 E21.33534
G1 X96.21 Y84.378 E21.36534
G1 X96.823 Y83.714 E21.3954
G1 X97.491 Y83.106 E21.42544
G1 X98.211 Y82.56 E21.4555
G1 X98.975 Y82.08 E21.48551
G1 X99.78 Y81.67 E21.51556
G1 X100.618 Y81.332 E21.54561
G1 X101.482 Y81.07 E21.57564
G1 X102.366 Y80.885 E21.60568
G1 X103.693 Y80.757 E21.65002
G1 X104.332 Y80.742 E21.67128
G1 X131.175 Y80.742 E22.56408
G1 X132.02 Y80.753 E22.59219
G1 X132.921 Y80.806 E22.62221
G1 X133.815 Y80.938 E22.65226
G1 X134.693 Y81.149 E22.6823
G1 X135.549 Y81.437 E22.71233
G1 X136.376 Y81.799 E22.74236
G1 X137.168 Y82.233 E22.7724
G1 X137.919 Y82.736 E22.80246
G1 X138.622 Y83.303 E22.8325
G1 X139.272 Y83.93 E22.86254
G1 X139.864 Y84.612 E22.89258
G1 X140.393 Y85.343 E22.92259
G1 X140.856 Y86.119 E22.95264
G1 X141.248 Y86.932 E22.98266
G1 X141.567 Y87.777 E23.0127
G1 X141.774 Y88.498 E23.03765
G1 X142.34 Y90.781 E23.11588
G1 X143.027 Y93.267 E23.20167
G1 X143.773 Y95.702 E23.28637
G1 X144.576 Y98.077 E23.36976
G1 X145.473 Y100.501 E23.45572
G1 X146.407 Y102.823 E23.53897
G1 X147.417 Y105.139 E23.623
G1 X148.518 Y107.486 E23.70923
G1 X149.641 Y109.708 E23.79203
G1 X150.869 Y111.981 E23.87796
G1 X152.114 Y114.137 E23.96077
G1 X153.47 Y116.337 E24.04672
G1 X154.847 Y118.438 E24.13027
G1 X156.318 Y120.546 E24.21577
G1 X157.816 Y122.571 E24.29955
G1 X159.513 Y124.732 E24.39093
G1 X160.039 Y125.466 E24.42097
G1 X160.498 Y126.244 E24.45101
G1 X160.886 Y127.06 E24.48107
G1 X161.2 Y127.906 E24.51108
G1 X161.438 Y128.778 E24.54114
G1 X161.598 Y129.666 E24.57115
G1 X161.685 Y130.716 E24.6062
G1 X161.7 Y131.355 E24.62746
G1 X161.699 Y143.461 E25.0301
G1 X161.689 Y144.188 E25.05428
G1 X161.637 Y145.09 E25.08434
G1 X161.505 Y145.983 E25.11436
G1 X161.294 Y146.862 E25.14443
G1 X161.007 Y147.718 E25.17445
G1 X160.645 Y148.545 E25.20448
G1 X160.211 Y149.337 E25.23452
G1 X159.709 Y150.088 E25.26456
G1 X159.143 Y150.791 E25.29458
G1 X158.516 Y151.442 E25.32464
G1 X157.835 Y152.034 E25.35465
G1 X157.104 Y152.564 E25.38469
G1 X156.328 Y153.027 E25.41474
G1 X155.515 Y153.42 E25.44477
G1 X154.67 Y153.74 E25.47483
G1 X153.801 Y153.983 E25.50484
G1 X152.913 Y154.148 E25.53488
G1 X151.777 Y154.244 E25.5728
G1 X151.17 Y154.257 E25.59299
G1 X84.075 Y154.256 E27.82458
G1 F2700 E22.82458
;MESH:Fader3Thin_BackFeet_v2.stl
G0 F6300 X84.075 Y144.722
G0 X117.5 Y143.456
;TYPE:WALL-INNER
G1 F2700 E27.82458
G1 F1260 X150.9 Y143.456 E28.93547
G1 X150.9 Y131.624 E29.329
G1 X131.805 Y131.62 E29.9641
G1 X131.485 Y131.477 E29.97576
G1 X131.367 Y131.336 E29.98188
G1 X131.281 Y131.063 E29.9914
G1 X131.28 Y91.54 E31.30594
G1 X104.6 Y91.54 E32.19332
G1 X104.599 Y131.15 E33.51075
G1 X104.48 Y131.384 E33.51948
G1 X104.283 Y131.554 E33.52814
G1 X104.075 Y131.62 E33.5354
G1 X84.1 Y131.624 E34.19977
G1 X84.1 Y143.456 E34.5933
G1 X117.5 Y143.456 E35.70419
G0 F6300 X117.5 Y143.856
;TYPE:WALL-OUTER
G1 F1260 X151.3 Y143.856 E36.82838
G1 X151.3 Y131.224 E37.24852
G1 X131.855 Y131.223 E37.89527
G1 X131.766 Y131.189 E37.89844
G1 X131.681 Y131.051 E37.90383
G1 X131.68 Y91.14 E39.23127
G1 X104.2 Y91.14 E40.14526
G1 X104.199 Y131.051 E41.47271
G1 X104.147 Y131.16 E41.47672
G1 X104.025 Y131.223 E41.48129
G1 X83.7 Y131.224 E42.1573
G1 X83.7 Y143.856 E42.57744
G1 X117.5 Y143.856 E43.70164
G0 F6300 X117.5 Y143.096
;TYPE:SKIN
G1 F1260 X84.46 Y143.096 E44.80055
G1 X84.46 Y131.984 E45.17014
G1 X104.131 Y131.974 E45.8244
G1 X104.366 Y131.909 E45.83251
G1 X104.706 Y131.67 E45.84633
G1 X104.874 Y131.421 E45.85632
G1 X104.956 Y131.084 E45.86786
G1 X104.96 Y91.9 E47.17112
G1 X130.92 Y91.9 E48.03456
G1 X130.924 Y131.111 E49.33872
G1 X131.054 Y131.527 E49.35321
G1 X131.33 Y131.818 E49.36655
G1 X131.693 Y131.974 E49.3797
G1 X150.54 Y131.984 E50.00655
G1 X150.54 Y143.096 E50.37614
G1 X117.5 Y143.096 E51.47505
G1 F2700 E46.47505
G0 F6300 X117.5 Y143.356
G0 X84.272 Y143.284
G0 X84.2 Y142.36
G0 X84.66 Y142.36
G1 F2700 E51.47505
G1 F1260 X85.196 Y142.896 E51.50026
G0 F6300 X85.761 Y142.896
G1 F1260 X84.66 Y141.794 E51.55207
G0 F6300 X84.66 Y141.228
G1 F1260 X86.327 Y142.896 E51.63051
G0 F6300 X86.893 Y142.896
G1 F1260 X84.66 Y140.663 E51.73554
G0 F6300 X84.66 Y140.097
G1 F1260 X87.459 Y142.896 E51.8672
G0 F6300 X88.024 Y142.896
G1 F1260 X84.66 Y139.531 E52.02545
G0 F6300 X84.66 Y138.966
G1 F1260 X88.59 Y142.896 E52.21031
G0 F6300 X89.156 Y142.896
G1 F1260 X84.66 Y138.4 E52.42179
G0 F6300 X84.66 Y137.834
G1 F1260 X89.721 Y142.896 E52.65986
G0 F6300 X90.287 Y142.896
G1 F1260 X84.66 Y137.269 E52.92454
G0 F6300 X84.66 Y136.703
G1 F1260 X90.853 Y142.896 E53.21584
G0 F6300 X91.418 Y142.896
G1 F1260 X84.66 Y136.137 E53.53374
G0 F6300 X84.66 Y135.571
G1 F1260 X91.984 Y142.896 E53.87826
G0 F6300 X92.55 Y142.896
G1 F1260 X84.66 Y135.006 E54.24938
G0 F6300 X84.66 Y134.44
G1 F1260 X93.115 Y142.896 E54.6471
G0 F6300 X93.681 Y142.896
G1 F1260 X84.66 Y133.874 E55.07145
G0 F6300 X84.66 Y133.309
G1 F1260 X94.247 Y142.896 E55.52239
G0 F6300 X94.812 Y142.896
G1 F1260 X84.66 Y132.743 E55.99993
G0 F6300 X84.667 Y132.184
G1 F1260 X95.378 Y142.896 E56.50377
G0 F6300 X95.944 Y142.896
G1 F1260 X85.233 Y132.184 E57.00761
G0 F6300 X85.798 Y132.184
G1 F1260 X96.509 Y142.896 E57.51144
G0 F6300 X97.075 Y142.896
G1 F1260 X86.363 Y132.184 E58.0153
G0 F6300 X86.928 Y132.183
G1 F1260 X97.641 Y142.896 E58.51921
G0 F6300 X98.207 Y142.896
G1 F1260 X87.494 Y132.183 E59.02311
G0 F6300 X88.059 Y132.182
G1 F1260 X98.772 Y142.896 E59.52704
G0 F6300 X99.338 Y142.896
G1 F1260 X88.625 Y132.182 E60.03098
G0 F6300 X89.189 Y132.182
G1 F1260 X99.904 Y142.896 E60.53495
G0 F6300 X100.469 Y142.896
G1 F1260 X89.755 Y132.182 E61.03891
G0 F6300 X90.32 Y132.181
G1 F1260 X101.035 Y142.896 E61.54291
G0 F6300 X101.601 Y142.896
G1 F1260 X90.885 Y132.18 E62.04695
G0 F6300 X91.451 Y132.18
G1 F1260 X102.166 Y142.896 E62.55098
G0 F6300 X102.732 Y142.896
G1 F1260 X92.016 Y132.179 E63.05505
G0 F6300 X92.581 Y132.179
G1 F1260 X103.298 Y142.896 E63.55914
G0 F6300 X103.863 Y142.896
G1 F1260 X93.146 Y132.179 E64.06324
G0 F6300 X93.712 Y132.179
G1 F1260 X104.429 Y142.896 E64.56733
G0 F6300 X104.995 Y142.896
G1 F1260 X94.277 Y132.178 E65.07148
G0 F6300 X94.843 Y132.178
G1 F1260 X105.56 Y142.896 E65.57559
G0 F6300 X106.126 Y142.896
G1 F1260 X95.408 Y132.177 E66.07976
G0 F6300 X95.973 Y132.177
