;FLAVOR:Marlin
;TIME:17409
;Filament used: 12.9592m
;Layer height: 0.2
;MINX:75.7
;MINY:41.7
;MINZ:0.2
;MAXX:159.3
;MAXY:193.3
;MAXZ:25
;TARGET_MACHINE.NAME:Creality Ender-3
;  [Display Filename and Layer on LCD]  Did not run.  It is now included in 'Display Info on LCD'.
;POSTPROCESSED
;  [DisplayFilenameAndLayerOnLCD]
;Generated with Cura_SteamEngine 5.9.0
M140 S55
M105
M190 S55
M104 S200
M105
M109 S200
M82 ;absolute extrusion mode
; Ender 3 Custom Start G-code
G92 E0 ; Reset Extruder
G28 ; Home all axes
G1 Z2.0 F3000 ; Move Z Axis up little to prevent scratching of Heat Bed
G1 X0.1 Y20 Z0.3 F5000.0 ; Move to start position
G1 X0.1 Y200.0 Z0.3 F1500.0 E15 ; Draw the first line
G1 X0.4 Y200.0 Z0.3 F5000.0 ; Move to side a little
G1 X0.4 Y20 Z0.3 F1500.0 E30 ; Draw the second line
G92 E0 ; Reset Extruder
G1 Z2.0 F3000 ; Move Z Axis up little to prevent scratching of Heat Bed
G1 X5 Y20 Z0.3 F5000.0 ; Move over to prevent blob squish
G92 E0
G92 E0
G1 F2700 E-5
;LAYER_COUNT:125
;LAYER:0
M107
G0 F6000 X83.397 Y41.7 Z0.2
;TYPE:SKIRT
G1 F2700 E0
G1 F1200 X151.52 Y41.702 E2.26578
G1 X153.45 Y42.213 E2.33218
G1 X155.291 Y43.144 E2.4008
G1 X156.749 Y44.541 E2.46796
G1 X157.937 Y45.973 E2.52985
G1 X158.734 Y47.956 E2.60093
G1 X158.897 Y48.489 E2.61947
G1 X159.19 Y49.934 E2.66851
G1 X159.246 Y50.453 E2.68587
G1 X159.3 Y51.527 E2.72163
G1 X159.286 Y183.86 E7.12305
G1 X159.238 Y184.682 E7.15043
G1 X159.16 Y185.277 E7.17039
G1 X158.836 Y186.707 E7.21916
G1 X158.572 Y187.498 E7.2469
G1 X158.046 Y188.772 E7.29274
G1 X157.055 Y190.205 E7.35069
G1 X155.153 Y192.004 E7.43776
G1 X152.798 Y192.965 E7.52236
G1 X151.58 Y193.3 E7.56438
G1 X83.233 Y193.204 E9.83761
G1 X81.786 Y192.951 E9.88647
G1 X79.459 Y191.703 E9.97429
G1 X77.693 Y189.855 E10.05931
G1 X77.021 Y188.93 E10.09734
G1 X76.346 Y187.269 E10.15697
G1 X76.005 Y186.115 E10.19699
G1 X75.838 Y185.234 E10.22682
G1 X75.743 Y184.303 E10.25794
G1 X75.7 Y183.473 E10.28558
G1 X75.736 Y50.751 E14.69994
G1 X75.866 Y49.592 E14.73873
G1 X76.074 Y48.617 E14.77189
G1 X76.428 Y47.502 E14.81079
G1 X76.955 Y46.225 E14.85674
G1 X77.939 Y44.802 E14.91429
G1 X79.851 Y42.997 E15.00174
G1 X81.862 Y42.152 E15.07429
G1 X83.397 Y41.7 E15.12751
G0 F6000 X83.456 Y42.1
G1 F1200 X151.467 Y42.102 E17.38957
G1 X153.307 Y42.589 E17.45287
G1 X155.057 Y43.474 E17.5181
G1 X156.472 Y44.83 E17.58328
G1 X157.589 Y46.18 E17.64156
G1 X158.351 Y48.073 E17.70943
G1 X158.514 Y48.606 E17.72797
G1 X158.792 Y49.977 E17.7745
G1 X158.848 Y50.496 E17.79186
G1 X158.9 Y51.527 E17.82619
G1 X158.887 Y183.837 E22.22684
G1 X158.841 Y184.63 E22.25326
G1 X158.763 Y185.225 E22.27322
G1 X158.456 Y186.581 E22.31946
G1 X158.202 Y187.345 E22.34624
G1 X157.691 Y188.583 E22.39079
G1 X156.752 Y189.941 E22.4457
G1 X154.932 Y191.662 E22.52901
G1 X152.692 Y192.579 E22.60952
G1 X151.525 Y192.9 E22.64977
G1 X83.302 Y192.81 E24.91888
G1 X81.917 Y192.568 E24.96564
G1 X79.706 Y191.382 E25.04909
G1 X78.017 Y189.62 E25.13027
G1 X77.374 Y188.735 E25.16666
G1 X76.717 Y187.118 E25.22471
G1 X76.389 Y186.002 E25.2634
G1 X76.236 Y185.193 E25.29078
G1 X76.141 Y184.262 E25.32191
G1 X76.1 Y183.473 E25.34819
G1 X76.134 Y50.796 E29.76104
G1 X76.264 Y49.637 E29.79983
G1 X76.455 Y48.738 E29.8304
G1 X76.798 Y47.655 E29.86818
G1 X77.309 Y46.417 E29.91273
G1 X78.244 Y45.065 E29.9674
G1 X80.073 Y43.338 E30.05107
G1 X81.975 Y42.536 E30.11972
G1 X83.456 Y42.1 E30.17107
G0 F6000 X83.515 Y42.5
G1 F1200 X151.414 Y42.502 E32.4294
G1 X153.164 Y42.965 E32.48961
G1 X154.823 Y43.804 E32.55144
G1 X156.195 Y45.119 E32.61465
G1 X157.241 Y46.386 E32.6693
G1 X157.968 Y48.19 E32.73399
G1 X158.131 Y48.723 E32.75253
G1 X158.394 Y50.02 E32.79654
G1 X158.45 Y50.539 E32.81391
G1 X158.5 Y51.527 E32.84681
G1 X158.488 Y183.814 E37.24669
G1 X158.444 Y184.578 E37.27214
G1 X158.366 Y185.173 E37.2921
G1 X158.066 Y186.492 E37.33709
G1 X157.832 Y187.192 E37.36164
G1 X157.337 Y188.391 E37.40479
G1 X156.447 Y189.678 E37.45683
G1 X154.71 Y191.32 E37.53633
G1 X152.586 Y192.193 E37.61271
G1 X151.47 Y192.5 E37.65121
G1 X83.371 Y192.416 E39.91619
G1 X82.051 Y192.185 E39.96076
G1 X79.949 Y191.058 E40.04009
G1 X78.341 Y189.385 E40.11727
G1 X77.727 Y188.54 E40.15201
G1 X77.088 Y186.967 E40.20848
G1 X76.773 Y185.89 E40.2458
G1 X76.634 Y185.152 E40.27078
G1 X76.539 Y184.221 E40.3019
G1 X76.5 Y183.473 E40.32682
G1 X76.532 Y50.841 E44.73818
G1 X76.662 Y49.682 E44.77697
G1 X76.846 Y48.822 E44.80622
G1 X77.168 Y47.808 E44.8416
G1 X77.664 Y46.606 E44.88485
G1 X78.547 Y45.329 E44.93649
G1 X80.297 Y43.677 E45.01653
G1 X82.088 Y42.92 E45.0812
G1 X83.515 Y42.5 E45.13068
G0 F6000 X83.574 Y42.9
G1 F1200 X151.361 Y42.902 E47.38528
G1 X153.021 Y43.341 E47.44239
G1 X154.589 Y44.134 E47.50083
G1 X155.918 Y45.408 E47.56207
G1 X156.893 Y46.592 E47.61308
G1 X157.585 Y48.307 E47.67459
G1 X157.748 Y48.84 E47.69313
G1 X157.996 Y50.063 E47.73463
G1 X158.052 Y50.582 E47.752
G1 X158.1 Y51.527 E47.78347
G1 X158.089 Y183.791 E52.18259
G1 X158.047 Y184.526 E52.20707
G1 X157.969 Y185.121 E52.22703
G1 X157.686 Y186.366 E52.2695
G1 X157.462 Y187.039 E52.29309
G1 X156.982 Y188.202 E52.33493
G1 X156.144 Y189.414 E52.38394
G1 X154.489 Y190.978 E52.45968
G1 X152.48 Y191.807 E52.53196
G1 X151.415 Y192.1 E52.5687
G1 X83.44 Y192.022 E54.82956
G1 X82.185 Y191.802 E54.87194
G1 X80.194 Y190.735 E54.94707
G1 X78.665 Y189.15 E55.02032
G1 X78.079 Y188.344 E55.05346
G1 X77.459 Y186.817 E55.10828
G1 X77.166 Y185.815 E55.143
G1 X77.032 Y185.111 E55.16684
G1 X76.937 Y184.18 E55.19796
G1 X76.9 Y183.473 E55.22151
G1 X76.93 Y50.886 E59.63137
G1 X77.06 Y49.727 E59.67016
G1 X77.227 Y48.943 E59.69682
G1 X77.538 Y47.961 E59.73108
G1 X78.018 Y46.798 E59.77293
G1 X78.852 Y45.592 E59.8217
G1 X80.521 Y44.016 E59.89805
G1 X82.201 Y43.304 E59.95873
G1 X83.574 Y42.9 E60.00634
G0 F6000 X83.633 Y43.3
G1 F1200 X151.308 Y43.302 E62.25722
G1 X152.878 Y43.717 E62.31123
G1 X154.355 Y44.464 E62.36628
G1 X155.641 Y45.697 E62.42553
G1 X156.545 Y46.798 E62.47292
G1 X157.202 Y48.424 E62.53124
G1 X157.365 Y48.957 E62.54978
G1 X157.598 Y50.106 E62.58878
G1 X157.654 Y50.625 E62.60614
G1 X157.7 Y51.527 E62.63618
G1 X157.69 Y183.768 E67.03453
G1 X157.65 Y184.474 E67.05805
G1 X157.572 Y185.069 E67.07801
G1 X157.306 Y186.24 E67.11795
G1 X157.092 Y186.886 E67.14058
G1 X156.627 Y188.013 E67.18113
G1 X155.841 Y189.15 E67.22711
G1 X154.268 Y190.636 E67.29908
G1 X152.374 Y191.421 E67.36727
G1 X151.36 Y191.7 E67.40225
G1 X83.509 Y191.628 E69.65898
G1 X82.319 Y191.419 E69.69917
G1 X80.438 Y190.412 E69.77013
G1 X78.953 Y188.872 E69.84129
G1 X78.432 Y188.15 E69.8709
G1 X77.83 Y186.667 E69.92413
G1 X77.559 Y185.739 E69.95629
G1 X77.43 Y185.07 E69.97895
G1 X77.335 Y184.139 E70.01008
G1 X77.3 Y183.473 E70.03226
G1 X77.328 Y50.931 E74.44062
G1 X77.458 Y49.772 E74.47941
G1 X77.609 Y49.063 E74.50352
G1 X77.908 Y48.114 E74.53662
G1 X78.373 Y46.987 E74.57717
G1 X79.155 Y45.856 E74.6229
G1 X80.744 Y44.356 E74.69558
G1 X82.314 Y43.688 E74.75233
G1 X83.633 Y43.3 E74.79806
G0 F6000 X83.692 Y43.7
G1 F1200 X151.255 Y43.702 E77.04521
G1 X152.735 Y44.093 E77.09612
G1 X154.121 Y44.794 E77.14778
G1 X155.364 Y45.986 E77.20506
G1 X156.196 Y47.002 E77.24874
G1 X156.819 Y48.541 E77.30396
G1 X156.982 Y49.074 E77.3225
G1 X157.2 Y50.149 E77.35898
G1 X157.256 Y50.668 E77.37635
G1 X157.3 Y51.527 E77.40495
G1 X157.291 Y183.746 E81.80258
G1 X157.253 Y184.422 E81.82509
G1 X157.175 Y185.017 E81.84505
G1 X156.926 Y186.115 E81.8825
G1 X156.722 Y186.733 E81.90415
G1 X156.272 Y187.824 E81.9434
G1 X155.538 Y188.886 E81.98634
G1 X154.046 Y190.295 E82.05459
G1 X152.268 Y191.035 E82.11865
G1 X151.305 Y191.3 E82.15187
G1 X83.578 Y191.234 E84.40448
G1 X82.453 Y191.036 E84.44247
G1 X80.682 Y190.089 E84.50926
G1 X79.241 Y188.594 E84.57833
G1 X78.786 Y187.956 E84.60439
G1 X78.201 Y186.516 E84.65609
G1 X77.952 Y185.662 E84.68567
G1 X77.828 Y185.029 E84.70713
G1 X77.733 Y184.098 E84.73825
G1 X77.7 Y183.473 E84.75907
G1 X77.726 Y50.976 E89.16594
G1 X77.856 Y49.817 E89.20473
G1 X78 Y49.147 E89.22752
G1 X78.278 Y48.267 E89.25822
G1 X78.728 Y47.176 E89.29747
G1 X79.458 Y46.12 E89.34017
G1 X80.967 Y44.696 E89.40917
G1 X82.427 Y44.072 E89.46198
G1 X83.692 Y43.7 E89.50584
G0 F6000 X83.751 Y44.1
G1 F1200 X151.202 Y44.102 E91.74927
G1 X152.592 Y44.469 E91.79708
G1 X153.887 Y45.124 E91.84535
G1 X155.087 Y46.275 E91.90066
G1 X155.848 Y47.208 E91.9407
G1 X156.436 Y48.658 E91.99274
G1 X156.599 Y49.191 E92.01128
G1 X156.802 Y50.192 E92.04525
G1 X156.858 Y50.711 E92.06261
G1 X156.9 Y51.527 E92.08979
G1 X156.892 Y183.724 E96.48668
G1 X156.856 Y184.37 E96.5082
G1 X156.778 Y184.965 E96.52816
G1 X156.546 Y185.99 E96.56311
G1 X156.352 Y186.581 E96.5838
G1 X155.919 Y187.631 E96.62158
G1 X155.233 Y188.623 E96.66169
G1 X153.823 Y189.955 E96.72621
G1 X152.162 Y190.649 E96.78608
G1 X151.25 Y190.9 E96.81754
G1 X83.647 Y190.84 E99.06603
G1 X82.587 Y190.653 E99.10183
G1 X80.926 Y189.765 E99.16447
G1 X79.529 Y188.316 E99.23142
G1 X79.141 Y187.765 E99.25383
G1 X78.572 Y186.365 E99.30409
G1 X78.345 Y185.585 E99.33111
G1 X78.221 Y184.952 E99.35257
G1 X78.132 Y184.077 E99.38182
G1 X78.1 Y183.473 E99.40194
G1 X78.124 Y51.021 E103.80731
G1 X78.254 Y49.862 E103.8461
G1 X78.391 Y49.232 E103.86754
G1 X78.648 Y48.419 E103.8959
G1 X79.081 Y47.369 E103.93368
G1 X79.763 Y46.383 E103.97355
G1 X81.19 Y45.036 E104.03882
G1 X82.54 Y44.456 E104.08769
G1 X83.751 Y44.1 E104.12967
G0 F6000 X83.809 Y44.5
G1 F1200 X151.149 Y44.502 E106.36941
G1 X152.449 Y44.845 E106.41413
G1 X153.653 Y45.454 E106.459
G1 X154.81 Y46.564 E106.51233
G1 X155.498 Y47.411 E106.54863
G1 X156.053 Y48.775 E106.5976
G1 X156.216 Y49.308 E106.61614
G1 X156.404 Y50.235 E106.6476
G1 X156.46 Y50.754 E106.66496
G1 X156.5 Y51.527 E106.69071
G1 X156.493 Y183.702 E111.08687
G1 X156.459 Y184.318 E111.10739
G1 X156.381 Y184.913 E111.12735
G1 X156.166 Y185.866 E111.15984
G1 X155.982 Y186.428 E111.17951
G1 X155.565 Y187.439 E111.21588
G1 X154.928 Y188.36 E111.25313
G1 X153.601 Y189.614 E111.31385
G1 X152.056 Y190.263 E111.36959
G1 X151.195 Y190.5 E111.39929
G1 X83.717 Y190.446 E113.64362
G1 X82.72 Y190.27 E113.67729
G1 X81.168 Y189.44 E113.73583
G1 X79.856 Y188.086 E113.79854
G1 X79.496 Y187.575 E113.81933
G1 X78.943 Y186.214 E113.86819
G1 X78.738 Y185.508 E113.89264
G1 X78.614 Y184.875 E113.91409
G1 X78.531 Y184.056 E113.94147
G1 X78.5 Y183.473 E113.96089
G1 X78.522 Y51.066 E118.36477
G1 X78.652 Y49.907 E118.40356
G1 X78.782 Y49.318 E118.42362
G1 X79.018 Y48.572 E118.44964
G1 X79.435 Y47.561 E118.48602
G1 X80.068 Y46.646 E118.52302
G1 X81.413 Y45.376 E118.58455
G1 X82.698 Y44.824 E118.63106
G1 X83.809 Y44.5 E118.66956
G0 F6000 X83.865 Y44.9
G1 F1200 X151.096 Y44.902 E120.90567
G1 X152.306 Y45.221 E120.94729
G1 X153.421 Y45.785 E120.98885
G1 X154.499 Y46.816 E121.03846
G1 X155.151 Y47.619 E121.07286
G1 X155.67 Y48.892 E121.11859
G1 X155.833 Y49.425 E121.13713
G1 X156.006 Y50.278 E121.16607
G1 X156.062 Y50.797 E121.18344
G1 X156.1 Y51.527 E121.20775
G1 X156.094 Y183.68 E125.60318
G1 X156.062 Y184.266 E125.6227
G1 X155.984 Y184.861 E125.64265
G1 X155.786 Y185.742 E125.67269
G1 X155.612 Y186.275 E125.69134
G1 X155.211 Y187.247 E125.72631
G1 X154.623 Y188.097 E125.76068
G1 X153.377 Y189.274 E125.81769
G1 X151.95 Y189.877 E125.86922
G1 X151.14 Y190.1 E125.89716
G1 X83.787 Y190.052 E128.13733
G1 X82.853 Y189.887 E128.16888
G1 X81.41 Y189.115 E128.22331
G1 X80.143 Y187.808 E128.28385
G1 X79.851 Y187.385 E128.30095
G1 X79.314 Y186.063 E128.34841
G1 X79.131 Y185.431 E128.37029
G1 X79.007 Y184.798 E128.39174
G1 X78.93 Y184.035 E128.41725
G1 X78.9 Y183.473 E128.43597
G1 X78.92 Y51.11 E132.83838
G1 X79.043 Y49.993 E132.87576
G1 X79.173 Y49.404 E132.89582
G1 X79.388 Y48.725 E132.91951
G1 X79.789 Y47.753 E132.95448
G1 X80.373 Y46.909 E132.98862
G1 X81.636 Y45.716 E133.0464
G1 X82.856 Y45.192 E133.09056
G1 X83.865 Y44.9 E133.1255
G0 F6000 X83.923 Y45.3
G1 F1200 X151.043 Y45.302 E135.35792
G1 X152.163 Y45.597 E135.39644
G1 X153.187 Y46.115 E135.43461
G1 X154.188 Y47.068 E135.48058
G1 X154.804 Y47.827 E135.51309
G1 X155.287 Y49.009 E135.55556
G1 X155.45 Y49.542 E135.5741
G1 X155.608 Y50.321 E135.60054
G1 X155.664 Y50.84 E135.6179
G1 X155.7 Y51.527 E135.64078
G1 X155.695 Y183.658 E140.03547
G1 X155.665 Y184.214 E140.05399
G1 X155.587 Y184.809 E140.07395
G1 X155.406 Y185.618 E140.10152
G1 X155.242 Y186.122 E140.11915
G1 X154.857 Y187.055 E140.15272
G1 X154.318 Y187.834 E140.18423
G1 X153.154 Y188.934 E140.2375
G1 X151.844 Y189.491 E140.28484
G1 X151.085 Y189.7 E140.31103
G1 X83.857 Y189.658 E142.54704
G1 X82.986 Y189.504 E142.57646
G1 X81.651 Y188.79 E142.62681
G1 X80.472 Y187.581 E142.68298
G1 X80.207 Y187.197 E142.6985
G1 X79.685 Y185.912 E142.74463
G1 X79.524 Y185.354 E142.76394
G1 X79.4 Y184.721 E142.7854
G1 X79.329 Y184.014 E142.80903
G1 X79.3 Y183.473 E142.82705
G1 X79.318 Y51.153 E147.22803
G1 X79.434 Y50.079 E147.26396
G1 X79.564 Y49.49 E147.28402
G1 X79.758 Y48.878 E147.30538
G1 X80.143 Y47.945 E147.33895
G1 X80.678 Y47.172 E147.37021
G1 X81.859 Y46.056 E147.42426
G1 X83.014 Y45.56 E147.46606
G1 X83.923 Y45.3 E147.49751
G0 F6000 X83.98 Y45.7
G1 F1200 X150.99 Y45.702 E149.72627
G1 X152.02 Y45.973 E149.7617
G1 X152.953 Y46.445 E149.79647
G1 X153.912 Y47.358 E149.84051
G1 X154.456 Y48.032 E149.86932
G1 X154.904 Y49.126 E149.90864
G1 X155.067 Y49.659 E149.92718
G1 X155.21 Y50.364 E149.9511
G1 X155.266 Y50.883 E149.96847
G1 X155.3 Y51.527 E149.98992
G1 X155.296 Y183.637 E154.38391
G1 X155.268 Y184.162 E154.4014
G1 X155.19 Y184.757 E154.42136
G1 X155.025 Y185.495 E154.44651
G1 X154.872 Y185.969 E154.46308
G1 X154.503 Y186.863 E154.49524
G1 X154.013 Y187.571 E154.52388
G1 X152.931 Y188.594 E154.57341
G1 X151.738 Y189.105 E154.61657
G1 X151.03 Y189.3 E154.641
G1 X83.927 Y189.264 E156.87285
G1 X83.119 Y189.121 E156.90015
G1 X81.892 Y188.465 E156.94642
G1 X80.801 Y187.354 E156.99821
G1 X80.563 Y187.009 E157.01215
G1 X80.056 Y185.761 E157.05696
G1 X79.917 Y185.277 E157.0737
G1 X79.793 Y184.644 E157.09516
G1 X79.728 Y183.992 E157.11695
G1 X79.7 Y183.473 E157.13424
G1 X79.716 Y51.195 E161.53382
G1 X79.825 Y50.165 E161.56827
G1 X79.955 Y49.576 E161.58833
G1 X80.128 Y49.031 E161.60735
G1 X80.497 Y48.137 E161.63952
G1 X80.983 Y47.435 E161.66792
G1 X82.082 Y46.396 E161.71822
G1 X83.172 Y45.928 E161.75767
G1 X83.98 Y45.7 E161.7856
G0 F6000 X84.034 Y46.1
G1 F1200 X150.937 Y46.102 E164.0108
G1 X151.879 Y46.35 E164.0432
G1 X152.72 Y46.775 E164.07454
G1 X153.601 Y47.609 E164.11489
G1 X154.108 Y48.237 E164.14173
G1 X154.521 Y49.243 E164.1779
G1 X154.684 Y49.776 E164.19644
G1 X154.812 Y50.407 E164.21786
G1 X154.868 Y50.926 E164.23522
G1 X154.9 Y51.527 E164.25524
G1 X154.897 Y183.616 E168.64853
G1 X154.871 Y184.11 E168.66499
G1 X154.793 Y184.705 E168.68495
G1 X154.644 Y185.373 E168.70771
G1 X154.502 Y185.816 E168.72318
G1 X154.149 Y186.671 E168.75395
G1 X153.708 Y187.308 E168.77972
G1 X152.706 Y188.256 E168.8256
G1 X151.632 Y188.719 E168.86449
G1 X150.975 Y188.9 E168.88716
G1 X83.997 Y188.87 E171.11486
G1 X83.251 Y188.738 E171.14006
G1 X82.135 Y188.142 E171.18214
G1 X81.087 Y187.074 E171.2319
G1 X80.917 Y186.818 E171.24212
G1 X80.44 Y185.65 E171.28409
G1 X80.31 Y185.2 E171.29967
G1 X80.186 Y184.567 E171.32112
G1 X80.127 Y183.97 E171.34107
G1 X80.1 Y183.473 E171.35763
G1 X80.114 Y51.236 E175.75585
G1 X80.216 Y50.251 E175.78878
G1 X80.346 Y49.662 E175.80885
G1 X80.498 Y49.184 E175.82553
G1 X80.851 Y48.329 E175.85629
G1 X81.288 Y47.698 E175.88182
G1 X82.305 Y46.736 E175.92838
G1 X83.33 Y46.296 E175.96548
G1 X84.034 Y46.1 E175.98979
G0 F6000 X84.089 Y46.5
G1 F1200 X150.884 Y46.502 E178.2114
G1 X151.738 Y46.727 E178.24077
G1 X152.488 Y47.106 E178.26872
G1 X153.29 Y47.86 E178.30534
G1 X153.76 Y48.442 E178.33022
G1 X154.138 Y49.36 E178.36324
G1 X154.301 Y49.893 E178.38177
G1 X154.414 Y50.45 E178.40068
G1 X154.47 Y50.969 E178.41804
G1 X154.5 Y51.527 E178.43663
G1 X154.498 Y183.595 E182.82923
G1 X154.474 Y184.058 E182.84465
G1 X154.396 Y184.653 E182.8646
G1 X154.263 Y185.252 E182.88501
G1 X154.132 Y185.663 E182.89936
G1 X153.795 Y186.479 E182.92872
G1 X153.403 Y187.045 E182.95162
G1 X152.482 Y187.916 E182.99378
G1 X151.526 Y188.333 E183.02847
