;FLAVOR:Marlin
;TIME:1815
;Filament used: 1.06141m
;Layer height: 0.2
;MINX:75.7
;MINY:103.151
;MINZ:0.2
;MAXX:159.3
;MAXY:131.849
;MAXZ:8.6
;TARGET_MACHINE.NAME:Creality Ender-3
;  [Display Filename and Layer on LCD]  Did not run.  It is now included in 'Display Info on LCD'.
;POSTPROCESSED
;  [DisplayFilenameAndLayerOnLCD]
;Generated with Cura_SteamEngine 5.9.0
M140 S55
M105
M190 S55
M104 S200
M105
M109 S200
M82 ;absolute extrusion mode
; Ender 3 Custom Start G-code
G92 E0 ; Reset Extruder
G28 ; Home all axes
G1 Z2.0 F3000 ; Move Z Axis up little to prevent scratching of Heat Bed
G1 X0.1 Y20 Z0.3 F5000.0 ; Move to start position
G1 X0.1 Y200.0 Z0.3 F1500.0 E15 ; Draw the first line
G1 X0.4 Y200.0 Z0.3 F5000.0 ; Move to side a little
G1 X0.4 Y20 Z0.3 F1500.0 E30 ; Draw the second line
G92 E0 ; Reset Extruder
G1 Z2.0 F3000 ; Move Z Axis up little to prevent scratching of Heat Bed
G1 X5 Y20 Z0.3 F5000.0 ; Move over to prevent blob squish
G92 E0
G92 E0
G1 F2700 E-5
;LAYER_COUNT:43
;LAYER:0
M107
G0 F6000 X152.479 Y131.774 Z0.2
;TYPE:SKIRT
G1 F2700 E0
G1 F1200 X82.647 Y131.849 E2.32262
G1 X80.751 Y131.383 E2.38756
G1 X78.723 Y130.33 E2.46356
G1 X77.264 Y128.769 E2.53463
G1 X76.057 Y126.746 E2.61298
G1 X75.775 Y125.028 E2.67089
G1 X75.7 Y110.173 E3.16497
G1 X76.167 Y108.27 E3.23014
G1 X77.219 Y106.243 E3.3061
G1 X78.78 Y104.784 E3.37717
G1 X80.803 Y103.577 E3.45552
G1 X82.521 Y103.295 E3.51342
G1 X103.008 Y103.22 E4.19483
G1 X103.346 Y103.151 E4.2063
G1 X132.538 Y103.151 E5.17723
G1 X132.874 Y103.22 E5.18864
G1 X152.353 Y103.22 E5.83652
G1 X154.249 Y103.686 E5.90145
G1 X156.277 Y104.739 E5.97746
G1 X157.736 Y106.3 E6.04852
G1 X158.943 Y108.323 E6.12687
G1 X159.225 Y110.041 E6.18478
G1 X159.3 Y124.896 E6.67886
G1 X158.833 Y126.799 E6.74404
G1 X157.781 Y128.826 E6.81999
G1 X156.22 Y130.285 E6.89106
G1 X154.197 Y131.492 E6.96941
G1 X152.479 Y131.774 E7.02732
G0 F6000 X152.414 Y131.379
G1 F1200 X82.693 Y131.449 E9.34625
G1 X80.894 Y131.007 E9.40786
G1 X78.968 Y130.007 E9.48004
G1 X77.588 Y128.53 E9.54727
G1 X76.44 Y126.606 E9.62179
G1 X76.17 Y124.963 E9.67717
G1 X76.1 Y110.218 E10.1676
G1 X76.543 Y108.413 E10.22941
G1 X77.542 Y106.488 E10.30155
G1 X79.019 Y105.108 E10.36878
G1 X80.943 Y103.96 E10.4433
G1 X82.586 Y103.69 E10.49867
G1 X103.049 Y103.62 E11.17928
G1 X103.387 Y103.551 E11.19075
G1 X132.497 Y103.551 E12.15896
G1 X132.833 Y103.62 E12.17037
G1 X152.307 Y103.62 E12.81807
G1 X154.106 Y104.062 E12.87969
G1 X156.032 Y105.062 E12.95187
G1 X157.412 Y106.539 E13.0191
G1 X158.56 Y108.463 E13.09362
G1 X158.83 Y110.106 E13.149
G1 X158.9 Y124.851 E13.63942
G1 X158.457 Y126.656 E13.70124
G1 X157.458 Y128.581 E13.77337
G1 X155.981 Y129.961 E13.8406
G1 X154.057 Y131.109 E13.91512
G1 X152.414 Y131.379 E13.9705
G0 F6000 X152.349 Y130.984
G1 F1200 X82.74 Y131.049 E16.28571
G1 X81.036 Y130.63 E16.34407
G1 X79.213 Y129.684 E16.41238
G1 X77.909 Y128.288 E16.47592
G1 X76.823 Y126.468 E16.54641
G1 X76.565 Y124.898 E16.59933
G1 X76.5 Y110.263 E17.08609
G1 X76.919 Y108.556 E17.14455
G1 X77.865 Y106.733 E17.21287
G1 X79.261 Y105.429 E17.2764
G1 X81.081 Y104.343 E17.34689
G1 X82.651 Y104.085 E17.39981
G1 X103.09 Y104.02 E18.07962
G1 X103.428 Y103.951 E18.09109
G1 X132.456 Y103.951 E19.05657
G1 X132.792 Y104.02 E19.06798
G1 X152.26 Y104.02 E19.71549
G1 X153.964 Y104.439 E19.77385
G1 X155.787 Y105.385 E19.84216
G1 X157.091 Y106.781 E19.9057
G1 X158.177 Y108.601 E19.97619
G1 X158.435 Y110.171 E20.02911
G1 X158.5 Y124.806 E20.51587
G1 X158.081 Y126.513 E20.57433
G1 X157.135 Y128.336 E20.64264
G1 X155.739 Y129.64 E20.70618
G1 X153.919 Y130.726 E20.77667
G1 X152.349 Y130.984 E20.82959
G0 F6000 X152.284 Y130.589
G1 F1200 X82.786 Y130.649 E23.1411
G1 X81.179 Y130.254 E23.19614
G1 X79.458 Y129.361 E23.26063
G1 X78.23 Y128.046 E23.32047
G1 X77.206 Y126.33 E23.38694
G1 X76.96 Y124.833 E23.4374
G1 X76.9 Y110.308 E23.9205
G1 X77.295 Y108.699 E23.97561
G1 X78.188 Y106.978 E24.0401
G1 X79.503 Y105.75 E24.09994
G1 X81.219 Y104.726 E24.1664
G1 X82.716 Y104.48 E24.21686
G1 X103.132 Y104.42 E24.8959
G1 X103.469 Y104.351 E24.90734
G1 X132.415 Y104.351 E25.87009
G1 X132.751 Y104.42 E25.8815
G1 X152.214 Y104.42 E26.52884
G1 X153.821 Y104.815 E26.58388
G1 X155.542 Y105.708 E26.64837
G1 X156.77 Y107.023 E26.70821
G1 X157.794 Y108.739 E26.77468
G1 X158.04 Y110.236 E26.82514
G1 X158.1 Y124.761 E27.30824
G1 X157.705 Y126.37 E27.36335
G1 X156.812 Y128.091 E27.42784
G1 X155.497 Y129.319 E27.48768
G1 X153.781 Y130.343 E27.55414
G1 X152.284 Y130.589 E27.6046
G0 F6000 X152.219 Y130.194
G1 F1200 X82.832 Y130.249 E29.91242
G1 X81.322 Y129.878 E29.96414
G1 X79.703 Y129.038 E30.0248
G1 X78.551 Y127.804 E30.08095
G1 X77.589 Y126.192 E30.14339
G1 X77.355 Y124.768 E30.19139
G1 X77.3 Y110.353 E30.67083
G1 X77.671 Y108.842 E30.72258
G1 X78.511 Y107.223 E30.78325
G1 X79.745 Y106.071 E30.8394
G1 X81.357 Y105.109 E30.90183
G1 X82.781 Y104.875 E30.94983
G1 X103.173 Y104.82 E31.62807
G1 X103.51 Y104.751 E31.63951
G1 X132.374 Y104.751 E32.59953
G1 X132.71 Y104.82 E32.61094
G1 X152.168 Y104.82 E33.25812
G1 X153.678 Y105.191 E33.30984
G1 X155.297 Y106.031 E33.3705
G1 X156.449 Y107.265 E33.42665
G1 X157.411 Y108.877 E33.48908
G1 X157.645 Y110.301 E33.53708
G1 X157.7 Y124.716 E34.01653
G1 X157.329 Y126.227 E34.06828
G1 X156.489 Y127.846 E34.12894
G1 X155.255 Y128.998 E34.18509
G1 X153.643 Y129.96 E34.24753
G1 X152.219 Y130.194 E34.29553
G0 F6000 X152.154 Y129.799
G1 F1200 X82.879 Y129.849 E36.59962
G1 X81.464 Y129.501 E36.64809
G1 X79.948 Y128.715 E36.70489
G1 X78.872 Y127.562 E36.75734
G1 X77.972 Y126.054 E36.81575
G1 X77.75 Y124.703 E36.86129
G1 X77.7 Y110.399 E37.33704
G1 X78.048 Y108.984 E37.38551
G1 X78.834 Y107.468 E37.4423
G1 X79.987 Y106.392 E37.49476
G1 X81.495 Y105.492 E37.55317
G1 X82.846 Y105.27 E37.5987
G1 X103.215 Y105.22 E38.27618
G1 X103.551 Y105.151 E38.28759
G1 X132.333 Y105.151 E39.24488
G1 X132.669 Y105.22 E39.25629
G1 X152.121 Y105.22 E39.90327
G1 X153.536 Y105.568 E39.95173
G1 X155.052 Y106.354 E40.00853
G1 X156.128 Y107.507 E40.06099
G1 X157.028 Y109.015 E40.11939
G1 X157.25 Y110.366 E40.16493
G1 X157.3 Y124.67 E40.64069
G1 X156.952 Y126.085 E40.68915
G1 X156.166 Y127.601 E40.74595
G1 X155.013 Y128.677 E40.7984
G1 X153.505 Y129.577 E40.85681
G1 X152.154 Y129.799 E40.90235
G0 F6000 X152.089 Y129.404
G1 F1200 X82.925 Y129.449 E43.20276
G1 X81.607 Y129.125 E43.2479
G1 X80.193 Y128.392 E43.30087
G1 X79.193 Y127.32 E43.34963
G1 X78.355 Y125.916 E43.40401
G1 X78.145 Y124.638 E43.44709
G1 X78.1 Y110.445 E43.91915
G1 X78.424 Y109.127 E43.96429
G1 X79.157 Y107.713 E44.01727
G1 X80.229 Y106.713 E44.06603
G1 X81.633 Y105.875 E44.12041
G1 X82.911 Y105.665 E44.16349
G1 X103.256 Y105.62 E44.84017
G1 X103.592 Y105.551 E44.85157
G1 X132.292 Y105.551 E45.80614
G1 X132.628 Y105.62 E45.81755
G1 X152.075 Y105.62 E46.46436
G1 X153.393 Y105.944 E46.5095
G1 X154.807 Y106.677 E46.56247
G1 X155.807 Y107.749 E46.61123
G1 X156.645 Y109.153 E46.66562
G1 X156.855 Y110.431 E46.70869
G1 X156.9 Y124.624 E47.18076
G1 X156.576 Y125.942 E47.2259
G1 X155.843 Y127.356 E47.27887
G1 X154.771 Y128.356 E47.32763
G1 X153.367 Y129.194 E47.38201
G1 X152.089 Y129.404 E47.42509
G0 F6000 X153.229 Y128.811
G1 F1200 X152.024 Y129.009 E47.46571
G1 X82.971 Y129.049 E49.76242
G1 X81.75 Y128.749 E49.80424
G1 X80.44 Y128.07 E49.85331
G1 X79.512 Y127.075 E49.89857
G1 X78.738 Y125.778 E49.9488
G1 X78.54 Y124.573 E49.98942
G1 X78.5 Y110.491 E50.45779
G1 X78.8 Y109.27 E50.49961
G1 X79.479 Y107.96 E50.54868
G1 X80.474 Y107.032 E50.59394
G1 X81.771 Y106.258 E50.64417
G1 X82.976 Y106.06 E50.68479
G1 X103.297 Y106.02 E51.36067
G1 X103.633 Y105.951 E51.37208
G1 X132.251 Y105.951 E52.32392
G1 X132.587 Y106.02 E52.33533
G1 X152.029 Y106.02 E52.98197
G1 X153.25 Y106.32 E53.02379
G1 X154.56 Y106.999 E53.07286
G1 X155.488 Y107.994 E53.11812
G1 X156.262 Y109.291 E53.16835
G1 X156.46 Y110.496 E53.20897
G1 X156.5 Y124.578 E53.67734
G1 X156.2 Y125.799 E53.71916
G1 X155.521 Y127.109 E53.76823
G1 X154.526 Y128.037 E53.81349
G1 X153.229 Y128.811 E53.86372
G0 F6000 X153.089 Y128.428
G1 F1200 X151.959 Y128.614 E53.90181
G1 X83.017 Y128.649 E56.19483
G1 X81.893 Y128.373 E56.23333
G1 X80.687 Y127.748 E56.27851
G1 X79.834 Y126.833 E56.32011
G1 X79.121 Y125.638 E56.3664
G1 X78.935 Y124.508 E56.40449
G1 X78.9 Y110.537 E56.86916
G1 X79.176 Y109.413 E56.90766
G1 X79.801 Y108.207 E56.95284
G1 X80.716 Y107.354 E56.99444
G1 X81.911 Y106.641 E57.04073
G1 X83.041 Y106.455 E57.07882
G1 X103.338 Y106.42 E57.7539
G1 X103.674 Y106.351 E57.76531
G1 X132.21 Y106.351 E58.71442
G1 X132.546 Y106.42 E58.72583
G1 X151.983 Y106.42 E59.3723
G1 X153.107 Y106.696 E59.4108
G1 X154.313 Y107.321 E59.45598
G1 X155.166 Y108.236 E59.49758
G1 X155.879 Y109.431 E59.54387
G1 X156.065 Y110.561 E59.58196
G1 X156.1 Y124.532 E60.04663
G1 X155.824 Y125.656 E60.08513
G1 X155.199 Y126.862 E60.13031
G1 X154.284 Y127.715 E60.17191
G1 X153.089 Y128.428 E60.2182
G0 F6000 X152.949 Y128.045
G1 F1200 X151.894 Y128.219 E60.25376
G1 X83.064 Y128.249 E62.54306
G1 X82.035 Y127.996 E62.5783
G1 X80.934 Y127.426 E62.61954
G1 X80.156 Y126.591 E62.65749
G1 X79.504 Y125.498 E62.69982
G1 X79.33 Y124.443 E62.73539
G1 X79.3 Y110.584 E63.19634
G1 X79.553 Y109.555 E63.23159
G1 X80.123 Y108.454 E63.27282
G1 X80.958 Y107.676 E63.31078
G1 X82.051 Y107.024 E63.35311
G1 X83.106 Y106.85 E63.38867
G1 X103.379 Y106.82 E64.06296
G1 X103.715 Y106.751 E64.07437
G1 X132.169 Y106.751 E65.02075
G1 X132.505 Y106.82 E65.03216
G1 X151.936 Y106.82 E65.67844
G1 X152.965 Y107.073 E65.71368
G1 X154.066 Y107.643 E65.75492
G1 X154.844 Y108.478 E65.79287
G1 X155.496 Y109.571 E65.8352
G1 X155.67 Y110.626 E65.87077
G1 X155.7 Y124.485 E66.33172
G1 X155.447 Y125.514 E66.36697
G1 X154.877 Y126.615 E66.4082
G1 X154.042 Y127.393 E66.44616
G1 X152.949 Y128.045 E66.48849
G0 F6000 X152.809 Y127.662
G1 F1200 X151.829 Y127.824 E66.52153
G1 X83.11 Y127.849 E68.80713
G1 X82.178 Y127.62 E68.83905
G1 X81.181 Y127.104 E68.87639
G1 X80.478 Y126.349 E68.9107
G1 X79.887 Y125.358 E68.94908
G1 X79.725 Y124.378 E68.98212
G1 X79.7 Y110.63 E69.43938
G1 X79.929 Y109.698 E69.4713
G1 X80.445 Y108.701 E69.50864
G1 X81.2 Y107.998 E69.54295
G1 X82.191 Y107.407 E69.58132
G1 X83.171 Y107.245 E69.61436
G1 X103.42 Y107.22 E70.28785
G1 X103.756 Y107.151 E70.29926
G1 X132.128 Y107.151 E71.24291
G1 X132.464 Y107.22 E71.25432
G1 X151.89 Y107.22 E71.90043
G1 X152.822 Y107.449 E71.93235
G1 X153.819 Y107.965 E71.96969
G1 X154.522 Y108.72 E72.004
G1 X155.113 Y109.711 E72.04238
G1 X155.275 Y110.691 E72.07542
G1 X155.3 Y124.439 E72.53268
G1 X155.071 Y125.371 E72.5646
G1 X154.555 Y126.368 E72.60194
G1 X153.8 Y127.071 E72.63625
G1 X152.809 Y127.662 E72.67463
G0 F6000 X152.669 Y127.279
G1 F1200 X151.764 Y127.429 E72.70514
G1 X83.156 Y127.449 E74.98705
G1 X82.321 Y127.244 E75.01565
G1 X81.426 Y126.781 E75.04916
G1 X80.802 Y126.11 E75.07964
G1 X80.27 Y125.218 E75.11418
G1 X80.12 Y124.313 E75.14469
G1 X80.1 Y110.676 E75.59826
G1 X80.305 Y109.841 E75.62686
G1 X80.768 Y108.946 E75.66037
G1 X81.439 Y108.322 E75.69085
G1 X82.331 Y107.79 E75.72539
G1 X83.236 Y107.64 E75.7559
G1 X103.461 Y107.62 E76.42859
G1 X103.797 Y107.551 E76.44
G1 X132.087 Y107.551 E77.38093
G1 X132.423 Y107.62 E77.39234
G1 X151.844 Y107.62 E78.03828
G1 X152.679 Y107.825 E78.06688
G1 X153.574 Y108.288 E78.10039
G1 X154.198 Y108.959 E78.13087
G1 X154.73 Y109.851 E78.16542
G1 X154.88 Y110.756 E78.19593
G1 X154.9 Y124.393 E78.6495
G1 X154.695 Y125.228 E78.67809
G1 X154.232 Y126.123 E78.71161
G1 X153.561 Y126.747 E78.74208
G1 X152.669 Y127.279 E78.77663
G0 F6000 X152.529 Y126.896
G1 F1200 X151.698 Y127.034 E78.80465
G1 X83.202 Y127.049 E81.08283
G1 X82.464 Y126.868 E81.10811
G1 X81.671 Y126.458 E81.1378
G1 X81.126 Y125.871 E81.16444
G1 X80.653 Y125.078 E81.19515
G1 X80.515 Y124.247 E81.22317
G1 X80.5 Y110.722 E81.67301
G1 X80.681 Y109.984 E81.69828
G1 X81.091 Y109.191 E81.72798
G1 X81.678 Y108.646 E81.75462
G1 X82.471 Y108.173 E81.78533
G1 X83.302 Y108.035 E81.81335
G1 X103.502 Y108.02 E82.4852
G1 X103.838 Y107.951 E82.49661
G1 X132.046 Y107.951 E83.43481
G1 X132.382 Y108.02 E83.44622
G1 X151.798 Y108.02 E84.092
G1 X152.536 Y108.201 E84.11727
G1 X153.329 Y108.611 E84.14696
G1 X153.874 Y109.198 E84.1736
G1 X154.347 Y109.991 E84.20432
G1 X154.485 Y110.822 E84.23233
G1 X154.5 Y124.347 E84.68218
G1 X154.319 Y125.085 E84.70745
G1 X153.909 Y125.878 E84.73714
G1 X153.322 Y126.423 E84.76378
G1 X152.529 Y126.896 E84.79449
G0 F6000 X152.389 Y126.513
G1 F1200 X151.632 Y126.639 E84.82002
G1 X83.252 Y126.649 E87.09435
G1 X82.603 Y126.49 E87.11657
G1 X81.916 Y126.135 E87.14229
G1 X81.45 Y125.632 E87.1651
G1 X81.036 Y124.938 E87.19197
G1 X80.91 Y124.181 E87.2175
G1 X80.9 Y110.772 E87.66348
G1 X81.059 Y110.123 E87.68571
G1 X81.414 Y109.436 E87.71143
G1 X81.917 Y108.97 E87.73423
G1 X82.611 Y108.556 E87.76111
G1 X83.368 Y108.43 E87.78664
G1 X103.543 Y108.42 E88.45766
G1 X103.879 Y108.351 E88.46907
G1 X132.005 Y108.351 E89.40454
G1 X132.341 Y108.42 E89.41595
G1 X151.748 Y108.42 E90.06143
G1 X152.397 Y108.579 E90.08366
G1 X153.084 Y108.934 E90.10938
G1 X153.55 Y109.437 E90.13218
G1 X153.964 Y110.131 E90.15906
G1 X154.09 Y110.888 E90.18458
G1 X154.1 Y124.297 E90.63057
G1 X153.941 Y124.946 E90.65279
G1 X153.586 Y125.633 E90.67851
G1 X153.083 Y126.099 E90.70132
G1 X152.389 Y126.513 E90.7282
G0 F6000 X152.249 Y126.13
G1 F1200 X151.566 Y126.244 E90.75123
G1 X83.302 Y126.249 E93.0217
G1 X82.742 Y126.112 E93.04087
G1 X82.162 Y125.812 E93.06259
G1 X81.774 Y125.393 E93.08158
G1 X81.419 Y124.798 E93.10463
G1 X81.305 Y124.115 E93.12766
G1 X81.3 Y110.822 E93.56979
G1 X81.437 Y110.262 E93.58896
G1 X81.737 Y109.682 E93.61068
G1 X82.156 Y109.294 E93.62967
G1 X82.751 Y108.939 E93.65272
G1 X83.434 Y108.825 E93.67575
G1 X103.584 Y108.82 E94.34594
G1 X103.92 Y108.751 E94.35735
G1 X131.964 Y108.751 E95.2901
G1 X132.3 Y108.82 E95.30151
G1 X151.698 Y108.82 E95.94669
G1 X152.258 Y108.957 E95.96586
G1 X152.838 Y109.257 E95.98758
G1 X153.226 Y109.676 E96.00657
G1 X153.581 Y110.271 E96.02962
G1 X153.695 Y110.954 E96.05265
G1 X153.7 Y124.247 E96.49477
G1 X153.563 Y124.807 E96.51395
G1 X153.263 Y125.387 E96.53567
G1 X152.844 Y125.775 E96.55466
G1 X152.249 Y126.13 E96.57771
G0 F6000 X152.111 Y125.747
G1 F1200 X151.5 Y125.849 E96.59831
G1 X83.352 Y125.849 E98.86492
G1 X82.881 Y125.734 E98.88105
G1 X82.408 Y125.489 E98.89876
G1 X82.095 Y125.151 E98.91409
G1 X81.802 Y124.66 E98.9331
G1 X81.7 Y124.049 E98.95371
G1 X81.7 Y110.872 E99.39198
G1 X81.815 Y110.401 E99.4081
G1 X82.06 Y109.928 E99.42582
G1 X82.398 Y109.615 E99.44114
G1 X82.889 Y109.322 E99.46016
G1 X83.5 Y109.22 E99.48076
G1 X103.625 Y109.22 E100.15012
G1 X103.961 Y109.151 E100.16153
G1 X131.923 Y109.151 E101.09155
G1 X132.259 Y109.22 E101.10296
G1 X151.648 Y109.22 E101.74784
G1 X152.119 Y109.335 E101.76396
G1 X152.592 Y109.58 E101.78168
G1 X152.905 Y109.918 E101.797
G1 X153.198 Y110.409 E101.81602
G1 X153.3 Y111.02 E101.83662
G1 X153.3 Y124.197 E102.27489
G1 X153.185 Y124.668 E102.29102
G1 X152.94 Y125.141 E102.30874
G1 X152.602 Y125.454 E102.32406
G1 X152.111 Y125.747 E102.34307
G0 F6000 X151.973 Y125.364
G1 F1200 X151.5 Y125.449 E102.35906
G1 X83.402 Y125.449 E104.62401
G1 X83.02 Y125.356 E104.63708
G1 X82.654 Y125.166 E104.6508
G1 X82.416 Y124.909 E104.66245
G1 X82.185 Y124.522 E104.67744
G1 X82.1 Y124.049 E104.69342
G1 X82.1 Y110.922 E105.13003
G1 X82.193 Y110.54 E105.14311
G1 X82.383 Y110.174 E105.15682
G1 X82.64 Y109.936 E105.16847
G1 X83.027 Y109.705 E105.18346
G1 X83.5 Y109.62 E105.19945
G1 X103.666 Y109.62 E105.87017
G1 X104.002 Y109.551 E105.88158
G1 X131.882 Y109.551 E106.80887
G1 X132.218 Y109.62 E106.82028
G1 X151.598 Y109.62 E107.46486
G1 X151.98 Y109.713 E107.47794
G1 X152.346 Y109.903 E107.49165
G1 X152.584 Y110.16 E107.5033
G1 X152.815 Y110.547 E107.5183
G1 X152.9 Y111.02 E107.53428
G1 X152.9 Y124.147 E107.97088
G1 X152.807 Y124.529 E107.98396
G1 X152.617 Y124.895 E107.99768
G1 X152.36 Y125.133 E108.00933
G1 X151.973 Y125.364 E108.02432
G0 F6000 X151.828 Y124.984
G1 F1200 X152.155 Y124.789 E108.03698
G1 X152.293 Y124.65 E108.0435
G1 X152.43 Y124.387 E108.05336
